X:131
T:Kildare Fancy, The
R:hornpipe
D:Nathan Gourley and Joey Abarta: Copley Street
Z:id:hn-hornpipe-131
M:C|
L:1/8
K:D
dB | AFDF AFdB | (3ABA FA fedc | BGBd gefd | edcB A2dB |
AFDF AFdB | (3ABA FA fedc | BGBd gefd | ec (3ABc d2 :|
|: de | fdcd (3Bcd AF | Ddcd fdcd | eA~A2 fA~A2 | (3efe (3dcB A2de |
fdcd BdAF | Ddcd fdcd | eAfA gAfA | ec (3ABc d2 :| 
P:variations
|: dB | AFDF AFdB | (3ABA FA fedc | BGBd (3gfe fd | (3efe (3dcB A2dB |
AFDF AFdB | (3ABA FA fedc | BGBd (3gfe fd | ec (3ABc d2 :|
|: de | fdcd (3Bcd AF | DFAd fd (3Bcd | eA~A2 fA~A2 | (3efe (3dcB A2de |
fdcd (3Bcd AF | DFAd fd (3Bcd | eAfA gAfA | (3efe (3ABc d2 :| 

